src/images/Tools/Git.svg

<svg fill="none" height="50" viewBox="0 0 50 50" width="50" xmlns="http://www.w3.org/2000/svg" xmlns:xlink="http://www.w3.org/1999/xlink"><clipPath id="a"><path d="m0 0h50v50h-50z"/></clipPath><mask id="b" height="30" maskUnits="userSpaceOnUse" width="30" x="10" y="10"><path d="m10 10h30v30h-30z" fill="#fff"/></mask><g clip-path="url(#a)"><path d="m0 0h50v50h-50z" fill="#f03c2e"/><g mask="url(#b)"><path d="m39.4353 23.6641-13.0987-13.0977c-.1795-.1796-.3925-.322-.627-.4192s-.4859-.1472-.7397-.1472-.5052.05-.7397.1472-.4476.2396-.627.4192l-2.719 2.7203 3.4497 3.4496c.4056-.1377.8416-.1592 1.2587-.0621.4172.0972.7988.3092 1.1018.6119.3047.305.5173.6895.6137 1.1097.0963.4201.0725.8589-.0688 1.2662l3.3259 3.3249c.4074-.1414.8464-.1653 1.2666-.0687.4203.0965.8049.3095 1.1096.6146.2135.2135.3828.4669.4984.7458.1155.2788.175.5778.175.8796 0 .3019-.0595.6008-.175.8797-.1156.2789-.2849.5323-.4984.7458-.4316.4311-1.0167.6733-1.6267.6733s-1.1951-.2422-1.6267-.6733c-.3206-.3212-.5391-.73-.6279-1.175-.0887-.445-.0439-.9064.129-1.3259l-3.1016-3.1007v8.1612c.3273.1617.6115.3991.8288.6925.2174.2934.3617.6344.4211.9947.0593.3602.032.7295-.0797 1.0771-.1118.3476-.3048.6636-.563.9218-.2134.2135-.4668.3828-.7457.4983-.2789.1156-.5778.175-.8797.175s-.6008-.0594-.8797-.175c-.2789-.1155-.5323-.2848-.7457-.4983-.2135-.2135-.3829-.4669-.4985-.7458s-.175-.5779-.175-.8798.0594-.6009.175-.8798.285-.5323.4985-.7458c.2151-.2155.4707-.3863.7522-.5025v-8.2363c-.2803-.1154-.535-.2851-.7496-.4993-.2145-.2142-.3846-.4687-.5005-.7489-.1159-.2801-.1753-.5804-.1748-.8836.0005-.3031.0609-.6032.1777-.883l-3.4013-3.402-8.9824 8.9801c-.3619.3627-.5652.8541-.5652 1.3665s.2033 1.0039.5652 1.3665l13.0994 13.0994c.3627.3618.854.5651 1.3663.5651.5124 0 1.0037-.2033 1.3664-.5651l13.038-13.038c.3619-.3627.5652-.8541.5652-1.3665s-.2033-1.0039-.5652-1.3665z" fill="#fff"/></g></g></svg>

<svg width="50" height="50" viewBox="0 0 50 50" fill="none" xmlns="http://www.w3.org/2000/svg">
<rect width="50" height="50" fill="#F03C2E"/>
<mask id="mask0_333_2054" style="mask-type:luminance" maskUnits="userSpaceOnUse" x="10" y="10" width="30" height="30">
<path d="M10 10H40V40H10V10Z" fill="white"/>
</mask>
<g mask="url(#mask0_333_2054)">
<path d="M39.4353 23.6641L26.3366 10.5664C26.1571 10.3868 25.9441 10.2444 25.7096 10.1472C25.4751 10.05 25.2237 10 24.9699 10C24.7161 10 24.4647 10.05 24.2302 10.1472C23.9957 10.2444 23.7826 10.3868 23.6032 10.5664L20.8842 13.2867L24.3339 16.7363C24.7395 16.5986 25.1755 16.5771 25.5926 16.6742C26.0098 16.7714 26.3914 16.9834 26.6944 17.2861C26.9991 17.5911 27.2117 17.9756 27.3081 18.3958C27.4044 18.8159 27.3806 19.2547 27.2393 19.662L30.5652 22.9869C30.9726 22.8455 31.4116 22.8216 31.8318 22.9182C32.2521 23.0147 32.6367 23.2277 32.9414 23.5328C33.1549 23.7463 33.3242 23.9997 33.4398 24.2786C33.5553 24.5574 33.6148 24.8564 33.6148 25.1582C33.6148 25.4601 33.5553 25.759 33.4398 26.0379C33.3242 26.3168 33.1549 26.5702 32.9414 26.7837C32.5098 27.2148 31.9247 27.457 31.3147 27.457C30.7047 27.457 30.1196 27.2148 29.688 26.7837C29.3674 26.4625 29.1489 26.0537 29.0601 25.6087C28.9714 25.1637 29.0162 24.7023 29.1891 24.2828L26.0875 21.1821V29.3433C26.4148 29.505 26.699 29.7424 26.9163 30.0358C27.1337 30.3292 27.278 30.6702 27.3374 31.0305C27.3967 31.3907 27.3694 31.76 27.2577 32.1076C27.1459 32.4552 26.9529 32.7712 26.6947 33.0294C26.4813 33.2429 26.2279 33.4122 25.949 33.5277C25.6701 33.6433 25.3712 33.7027 25.0693 33.7027C24.7674 33.7027 24.4685 33.6433 24.1896 33.5277C23.9107 33.4122 23.6573 33.2429 23.4439 33.0294C23.2304 32.8159 23.061 32.5625 22.9454 32.2836C22.8298 32.0047 22.7704 31.7057 22.7704 31.4038C22.7704 31.1019 22.8298 30.8029 22.9454 30.524C23.061 30.2451 23.2304 29.9917 23.4439 29.7782C23.659 29.5627 23.9146 29.3919 24.1961 29.2757V21.0394C23.9158 20.924 23.6611 20.7543 23.4465 20.5401C23.232 20.3259 23.0619 20.0714 22.946 19.7912C22.8301 19.5111 22.7707 19.2108 22.7712 18.9076C22.7717 18.6045 22.8321 18.3044 22.9489 18.0246L19.5476 14.6226L10.5652 23.6027C10.2033 23.9654 10 24.4568 10 24.9692C10 25.4816 10.2033 25.9731 10.5652 26.3357L23.6646 39.4351C24.0273 39.7969 24.5186 40.0002 25.0309 40.0002C25.5433 40.0002 26.0346 39.7969 26.3973 39.4351L39.4353 26.3971C39.7972 26.0344 40.0005 25.543 40.0005 25.0306C40.0005 24.5182 39.7972 24.0267 39.4353 23.6641Z" fill="white"/>
</g>
</svg>
